(Generated by PartKam Version 0.05)

G21 G90 G40

(follow path 1)
G0 Z15
T0 M6
G17
M3
G0 X4.336040609137056 Y17.441116751269035
G1 Z-10 F800
G2 X4.624365482233502 Y20.48984771573604 I16.274111675126903 J0 F1500
G2 X5.434010152284264 Y23.2005076142132 I13.624365482233502 J-2.5989847715736043
G2 X6.776649746192893 Y25.68781725888325 I12.81472081218274 J-5.307106598984772
G2 X8.728426395939087 Y28.04822335025381 I13.459390862944163 J-9.147208121827411
G2 X11.088832487309645 Y30 I11.50761421319797 J-11.50761421319797
G2 X13.578680203045685 Y31.34263959390863 I7.7969543147208125 J-11.472081218274113
G2 X16.286802030456855 Y32.152284263959395 I5.307106598984772 J-12.81472081218274
G2 X19.33502538071066 Y32.441624365482234 I3.048223350253807 J-15.987309644670052
G2 X22.38578680203046 Y32.152284263959395 I0 J-16.274111675126903
G2 X25.093908629441625 Y31.34263959390863 I-2.5989847715736043 J-13.624365482233502
G2 X27.58375634517766 Y30 I-5.307106598984772 J-12.81472081218274
G2 X29.941624365482234 Y28.04822335025381 I-9.147208121827411 J-13.459390862944163
G2 X31.89593908629442 Y25.68781725888325 I-11.50761421319797 J-11.50761421319797
G2 X33.23857868020304 Y23.2005076142132 I-11.472081218274113 J-7.7969543147208125
G2 X34.04822335025381 Y20.48984771573604 I-12.81472081218274 J-5.307106598984772
G2 X34.33502538071066 Y17.441624365482234 I-15.987309644670052 J-3.048223350253807
G2 X34.04822335025381 Y14.390862944162437 I-16.274111675126903 J0
G2 X33.23857868020304 Y11.68274111675127 I-13.624365482233502 J2.5989847715736043
G2 X31.89593908629442 Y9.195431472081218 I-12.81472081218274 J5.307106598984772
G2 X29.941624365482234 Y6.835025380710659 I-13.459390862944163 J9.147208121827411
G2 X27.58375634517766 Y4.883248730964467 I-11.50761421319797 J11.50761421319797
G2 X25.093908629441625 Y3.5406091370558372 I-7.7969543147208125 J11.472081218274113
G2 X22.38578680203046 Y2.7284263959390866 I-5.307106598984772 J12.81472081218274
G2 X19.33502538071066 Y2.4416243654822334 I-3.048223350253807 J15.987309644670052
G2 X16.286802030456855 Y2.7284263959390866 I0 J16.274111675126903
G2 X13.578680203045685 Y3.5406091370558372 I2.5989847715736043 J13.624365482233502
G2 X11.088832487309645 Y4.883248730964467 I5.307106598984772 J12.81472081218274
G2 X8.728426395939087 Y6.835025380710659 I9.147208121827411 J13.459390862944163
G2 X6.776649746192893 Y9.195431472081218 I11.50761421319797 J11.50761421319797
G2 X5.434010152284264 Y11.68274111675127 I11.472081218274113 J7.7969543147208125
G2 X4.624365482233502 Y14.390862944162437 I12.81472081218274 J5.307106598984772
G2 X4.335025380710659 Y17.441624365482234 I15.987309644670052 J3.048223350253807
G0 Z15
M5
M30
